X:3171
L:1/8
M:2/4
K:C
 C | E3/2 E/ E D | EC C E/D/ | Cc cG | A2 GG | cc cG | AG EG/G/ | AG cE | D2 C || C/D/ | 
 E3/2 F/ ED | EC CG | c>d cG | A2 GG/A/ | cc ce | G/A/G/F/ EG | AG cE | D2 C |]

